X: 305718
M: 6/8
L: 1/8
K: D
d2d f2(f | a3) e2f | e2f e2f | e2e gfe |\
d2d f2f | a3 e2g | fed cde | d3- d2 H|] a |\
d3 dba | A2A ABc | d3 f2d |\
e2A f2d | e2A f2d | e2A d2f | a3 a2A |\
d3 efe | d3- d2A | dcd efe | d3- d2A |
f3 d2f | a3 aba | e3 age | ddd "^D.C."d2 |] F |\


